X:65
T:Arden Road Reel
R:reel
C:Bruce Osborne - July 2002
Z:bosborne@kos.net
M:2/4
L:1/8
K:Gmaj
D/C/|B,D GG/A/|BB/c/ B/A/G|A/B/A/G/ F/D/E/F/|G/F/G/E/ DD/C/|
B,D GG/A/|BB/c/ B/A/G|A/B/A/G/ F/D/E/F/|G/B/A/F/ G:|
|:G/A/|B/G/F/G/ D/E/D/C/|B,/D/G/A/ B/G/F/G/|A/F/D/F/ A/F/D/F/|G/F/G/E/ DG/A/|
B/G/F/G/ D/E/D/C/|B,/D/G/A/ B/G/F/G/|A/F/D/F/ A/F/D/F/|G/B/A/F/ G:|
